dist/svg/u1F3A5.svg

<?xml version="1.0" encoding="UTF-8"?><svg id="a" xmlns="http://www.w3.org/2000/svg" viewBox="0 0 40 40"><g><g><path d="M22.825,4.577c-3.389,0-6.136,2.747-6.136,6.136s2.747,6.136,6.136,6.136,6.136-2.747,6.136-6.136-2.747-6.136-6.136-6.136Zm0,7.923c-.987,0-1.787-.8-1.787-1.787s.8-1.787,1.787-1.787,1.787,.8,1.787,1.787-.8,1.787-1.787,1.787Z" fill="#4e5968"/><path d="M11.458,4.577c-3.389,0-6.136,2.747-6.136,6.136s2.747,6.136,6.136,6.136,6.136-2.747,6.136-6.136-2.747-6.136-6.136-6.136Zm0,7.923c-.987,0-1.787-.8-1.787-1.787s.8-1.787,1.787-1.787,1.787,.8,1.787,1.787-.8,1.787-1.787,1.787Z" fill="#4e5968"/></g><path d="M28.733,27.018l5.686,3.017c.423,.225,.933-.082,.933-.561v-11.447c0-.479-.51-.786-.933-.561l-5.686,3.017v6.534Z" fill="#4e5968"/><path d="M10.66,31.416h12.266v3.231c0,.428-.347,.775-.775,.775H11.435c-.428,0-.775-.347-.775-.775v-3.231h0Z" fill="#4e5968"/><path d="M27.211,32.428l-4.285,.991H10.66l-4.008-.975c-1.104-.269-1.88-1.257-1.88-2.393v-11.929c0-1.023,.829-1.851,1.851-1.851H27.268c1.023,0,1.851,.829,1.851,1.851v11.906c0,1.146-.791,2.141-1.908,2.399Z" fill="#afb7c0"/></g><rect x=".062" width="40" height="40" fill="none"/></svg>

<svg id="Layer_1" data-name="Layer 1" xmlns="http://www.w3.org/2000/svg" viewBox="0 0 40 40"><defs><style>.cls-1{fill:#4e5968;}.cls-2{fill:#afb7c0;}.cls-3{fill:none;}</style></defs><path class="cls-1" d="M22.825,4.577a6.137,6.137,0,1,0,6.136,6.137A6.137,6.137,0,0,0,22.825,4.577Zm0,7.923a1.787,1.787,0,1,1,1.787-1.786A1.787,1.787,0,0,1,22.825,12.5Z"/><path class="cls-1" d="M11.458,4.577a6.137,6.137,0,1,0,6.136,6.137A6.137,6.137,0,0,0,11.458,4.577Zm0,7.923a1.787,1.787,0,1,1,1.787-1.786A1.787,1.787,0,0,1,11.458,12.5Z"/><path class="cls-1" d="M28.733,27.018l5.686,3.017a.635.635,0,0,0,.933-.561V18.027a.635.635,0,0,0-.933-.561l-5.686,3.018Z"/><path class="cls-1" d="M10.66,31.416H22.926a0,0,0,0,1,0,0v3.231a.775.775,0,0,1-.775.775H11.435a.775.775,0,0,1-.775-.775V31.416A0,0,0,0,1,10.66,31.416Z"/><path class="cls-2" d="M27.211,32.428l-4.285.991H10.66l-4.008-.975a2.462,2.462,0,0,1-1.881-2.393V18.122a1.852,1.852,0,0,1,1.852-1.851H27.268a1.851,1.851,0,0,1,1.851,1.851V30.029A2.462,2.462,0,0,1,27.211,32.428Z"/><rect class="cls-3" x="0.062" width="40" height="40"/></svg>
